app/dist/common/images/yoshinoya-co-ltd.svg

<svg height="18" viewBox="0 0 18 18" width="18" xmlns="http://www.w3.org/2000/svg"><path d="m0 0h18v18h-18z" fill="#f0f3fa"/><path d="m6.48 8.6-1.8-2.6-.68.61 2 2.93v2.46h1v-2.46l2-2.94v5.4h1v-2.67h2v2.67h1v-6h-1v2.5h-2v-2.5h-1v.61l-.67-.61z" fill="#969594"/></svg>

<!-- by TradingView --><svg width="18" height="18" viewBox="0 0 18 18" xmlns="http://www.w3.org/2000/svg"><path fill="#F0F3FA" d="M0 0h18v18H0z"/><path d="M6.48 8.6 4.68 6 4 6.61l2 2.93V12h1V9.54L9 6.6V12h1V9.33h2V12h1V6h-1v2.5h-2V6H9v.61L8.33 6 6.48 8.6Z" fill="#969594"/></svg>
